!!!SOCIAL_FUNCTION:	war songs
!!!PDT:	1922
!!!OTL: No_77_Song_When_Washing_the_Wounded_(b).krn
!!!REG: Southwest
!!!LANG: Non-Tone
!!!LING_GROUP: Uto-Aztecan
**kern
*staff1
=1-
=
*clefF4
*k[f#c#g#d#a#]
*M2/4
8.d#\L
16c#\Jk
8B\L
8c#\J
=2||
*M5/4
[2.B\
2B\]
=3||
*M2/4
8.c#\L
16B\Jk
8G#\L
8B\J
=4||
*M5/4
[2.G#\
2G#\]
=5||
*M2/4
8.c#\L
16B\Jk
8G#\L
8B\J
=6||
*M5/4
[2.G#\
2G#\]
=7||
*M3/4
8.F#\L
16D#\Jk
16F#\LK
[8.F#\J
4F#\]
=8||
*M2/4
8.F#\L
16D#\Jk
16F#\LK
[8.F#\J
=9
2F#\]
=10||
*M3/4
8.G#\L
16B\Jk
12B\L
12B\
12G#\J
4F#\
=11||
*M2/4
8G#\L
8G#\J
4r
=12
8G#\L
8G#\J
4r
=13
8G#\L
8G#\J
4r
==:|!
*-
